; generated by Slic3r 1.2.9 on 2018-04-05 at 16:55:04

; external perimeters extrusion width = 0.30mm
; perimeters extrusion width = 0.40mm
; infill extrusion width = 0.40mm
; solid infill extrusion width = 0.40mm
; top infill extrusion width = 0.40mm

M107
M190 S65 ; set bed temperature
M104 S205 ; set temperature
G28 ; home all axes
G1 Z5 F5000 ; lift nozzle

M109 S205 ; wait for temperature to be reached
G21 ; set units to millimeters
G90 ; use absolute coordinates
M82 ; use absolute distances for extrusion
G92 E0
G1 Z0.300 F7800.000
G1 E-2.00000 F2400.00000
G92 E0
G1 X41.753 Y84.328 F7800.000
G1 E2.00000 F2400.00000
G1 X45.000 Y83.464 E2.22443 F1800.000
G1 X155.000 Y83.464 E9.57302
G1 X157.243 Y83.861 E9.72520
G1 X159.213 Y85.004 E9.87737 F1800.000
G1 X160.672 Y86.753 E10.02954
G1 X161.536 Y90.000 E10.25397
G1 X161.536 Y97.000 E10.72161
G1 X161.139 Y99.243 E10.87378
G1 X159.996 Y101.213 E11.02595
G1 X158.247 Y102.672 E11.17812
G1 X155.934 Y103.468 E11.34149
G1 X65.934 Y116.468 E17.41638
G1 X65.000 Y116.536 E17.47896
G1 X45.000 Y116.536 E18.81507
G1 X42.757 Y116.139 E18.96724
G1 X40.787 Y114.996 E19.11941
G1 X39.328 Y113.247 E19.27158
G1 X38.464 Y110.000 E19.49601
G1 X38.464 Y90.000 E20.83212
G1 X38.861 Y87.757 E20.98429
G1 X40.004 Y85.787 E21.13646
G1 X41.719 Y84.357 E21.28563
G1 E19.28563 F2400.00000
G92 E0
G1 X55.819 Y108.825 F7800.000
G1 E2.00000 F2400.00000
G1 X55.496 Y108.938 E2.02284 F1800.000
G1 X55.164 Y108.994 E2.04538
G1 X54.821 Y108.993 E2.06825
G1 X54.366 Y108.898 E2.09936
G1 X54.052 Y108.762 E2.12221
G1 X53.764 Y108.574 E2.14513
G1 X53.423 Y108.232 E2.17745
G1 X53.233 Y107.940 E2.20071
G1 X53.064 Y107.506 E2.23182
G1 X53.005 Y107.163 E2.25508
G1 X53.024 Y106.679 E2.28740
G1 X53.109 Y106.347 E2.31032
G1 X53.248 Y106.034 E2.33318
G1 X53.518 Y105.655 E2.36428
G1 X53.773 Y105.418 E2.38755
G1 X54.189 Y105.170 E2.41987
G1 X54.513 Y105.059 E2.44279
G1 X54.851 Y105.005 E2.46564 F1800.000
G1 X55.316 Y105.024 E2.49675
G1 X55.654 Y105.108 E2.52002
G1 X56.089 Y105.321 E2.55233
G1 X56.359 Y105.532 E2.57527
G1 X56.589 Y105.785 E2.59810
G1 X56.828 Y106.185 E2.62921
G1 X56.940 Y106.509 E2.65209
G1 X56.995 Y106.847 E2.67498
G1 X56.976 Y107.312 E2.70608
G1 X56.895 Y107.644 E2.72892
G1 X56.757 Y107.958 E2.75185
G1 X56.476 Y108.352 E2.78416
G1 X56.219 Y108.587 E2.80744
G1 X55.858 Y108.802 E2.83554
G1 X55.783 Y109.123 F7800.000
G1 E0.83554 F2400.00000
G92 E0
G1 X63.629 Y95.629 F7800.000
G1 E2.00000 F2400.00000
G1 X63.629 Y108.629 E2.86847 F1800.000
G1 X57.634 Y108.629 E3.26898
G1 X57.913 Y107.988 E3.31567
G1 X58.042 Y107.463 E3.35178
G1 X58.070 Y106.781 E3.39740
G1 X57.982 Y106.244 E3.43373
G1 X57.804 Y105.731 E3.47005
G1 X57.455 Y105.144 E3.51567
G1 X57.091 Y104.744 E3.55180
G1 X56.660 Y104.407 E3.58834
G1 X56.023 Y104.096 E3.63568
G1 X55.470 Y103.958 E3.67377
G1 X54.787 Y103.930 E3.71940
G1 X54.253 Y104.016 E3.75556
G1 X53.736 Y104.193 E3.79208
G1 X53.127 Y104.556 E3.83943
G1 X52.710 Y104.944 E3.87750
G1 X52.313 Y105.500 E3.92312
G1 X52.093 Y105.995 E3.95932
G1 X51.958 Y106.525 E3.99583
G1 X51.930 Y107.233 E4.04318
G1 X52.027 Y107.794 E4.08122
G1 X52.352 Y108.629 E4.14107
G1 X46.371 Y108.629 E4.54063
G1 X46.371 Y91.371 E5.69353
G1 X153.629 Y91.371 E12.85891
G1 X153.629 Y95.629 E13.14334
G1 X63.674 Y95.629 E19.15282
G1 X64.164 Y96.164 F7800.000
G1 X64.164 Y109.164 E20.02129 F1800.000
G1 X56.382 Y109.164 E20.54122
G1 X56.879 Y108.709 E20.58628
G1 X57.226 Y108.224 E20.62611
G1 X57.404 Y107.816 E20.65584
G1 X57.509 Y107.388 E20.68531
G1 X57.533 Y106.814 E20.72368
G1 X57.461 Y106.376 E20.75329
G1 X57.316 Y105.958 E20.78289
G1 X57.022 Y105.464 E20.82125
G1 X56.725 Y105.138 E20.85073
G1 X56.374 Y104.864 E20.88047
G1 X55.839 Y104.602 E20.92030
G1 X55.393 Y104.491 E20.95098
G1 X54.819 Y104.467 E20.98934
G1 X54.383 Y104.538 E21.01885
G1 X53.962 Y104.682 E21.04858
G1 X53.450 Y104.987 E21.08841
G1 X53.114 Y105.300 E21.11907
G1 X52.780 Y105.767 E21.15744
G1 X52.601 Y106.171 E21.18697
G1 X52.491 Y106.602 E21.21669
G1 X52.468 Y107.198 E21.25651
G1 X52.545 Y107.650 E21.28717
G1 X52.754 Y108.185 E21.32553
G1 X53.004 Y108.570 E21.35620
G1 X53.596 Y109.164 E21.41225
G1 X45.836 Y109.164 E21.93069
G1 X45.836 Y90.836 E23.15515
G1 X154.164 Y90.836 E30.39210
G1 X154.164 Y96.164 E30.74809
G1 X64.209 Y96.164 E36.75757
G1 X64.700 Y96.700 F7800.000
G1 X64.700 Y109.700 E37.62604 F1800.000
G1 X45.300 Y109.700 E38.92206
G1 X45.300 Y90.300 E40.21809
G1 X154.700 Y90.300 E47.52660
G1 X154.700 Y96.700 E47.95416
G1 X64.745 Y96.700 E53.96364
G1 X64.400 Y96.700 F7800.000
G1 X60.677 Y108.307 F7800.000
G1 X58.238 Y105.868 E54.19551 F1800.000
G1 X58.388 Y106.780 E54.25762
G1 X59.915 Y108.307 E54.40282
G1 X59.153 Y108.307 E54.45404
G1 X58.341 Y107.495 E54.53125
G1 E52.53125 F2400.00000
G92 E0
G1 X46.960 Y108.307 F7800.000
G1 E2.00000 F2400.00000
G1 X46.693 Y108.040 E2.02539 F1800.000
G1 X46.693 Y107.278 E2.07661
G1 X47.722 Y108.307 E2.17444
G1 X48.484 Y108.307 E2.22566
G1 X46.693 Y106.516 E2.39592
G1 X46.693 Y105.754 E2.44714
G1 X49.246 Y108.307 E2.68983
G1 X50.008 Y108.307 E2.74105
G1 X46.693 Y104.992 E3.05619
G1 X46.693 Y104.230 E3.10741
G1 X50.770 Y108.307 E3.49497
G1 X51.532 Y108.307 E3.54619
G1 X46.693 Y103.468 E4.00620
G1 X46.693 Y102.705 E4.05742
G1 X51.658 Y107.670 E4.52934
G1 X51.627 Y106.877 E4.58268
G1 X46.693 Y101.943 E5.05166
G1 X46.693 Y101.181 E5.10288
G1 X51.730 Y106.218 E5.58161
G1 X51.931 Y105.657 E5.62166
G1 X46.693 Y100.419 E6.11952
G1 X46.693 Y99.657 E6.17074
G1 X52.207 Y105.171 E6.69487
G1 X52.532 Y104.734 E6.73149
G1 X46.693 Y98.895 E7.28649
G1 X46.693 Y98.133 E7.33771
G1 X52.927 Y104.367 E7.93029
G1 X53.394 Y104.072 E7.96741
G1 X46.693 Y97.371 E8.60432
G1 X46.693 Y96.609 E8.65554
G1 X53.910 Y103.826 E9.34152
G1 X54.511 Y103.665 E9.38337
G1 X46.693 Y95.847 E10.12653
G1 X46.693 Y95.085 E10.17775
G1 X55.230 Y103.622 E10.98918
G1 X56.130 Y103.760 E11.05038
G1 X46.693 Y94.323 E11.94737
G1 X46.693 Y93.561 E11.99859
G1 X61.439 Y108.307 E13.40025
G1 X62.202 Y108.307 E13.45147
G1 X46.693 Y92.798 E14.92557
G1 X46.693 Y92.036 E14.97679
G1 X62.964 Y108.307 E16.52333
G1 X63.307 Y107.889 E16.55972
G1 X47.111 Y91.693 E18.09913
G1 X47.873 Y91.693 E18.15035
G1 X63.307 Y107.127 E19.61732
G1 X63.307 Y106.364 E19.66854
G1 X48.636 Y91.693 E21.06307
G1 X49.398 Y91.693 E21.11429
G1 X63.307 Y105.602 E22.43640
G1 X63.307 Y104.840 E22.48761
G1 X50.160 Y91.693 E23.73728
G1 X50.922 Y91.693 E23.78850
G1 X63.307 Y104.078 E24.96573
G1 X63.307 Y103.316 E25.01695
G1 X51.684 Y91.693 E26.12174
G1 X52.446 Y91.693 E26.17296
G1 X63.307 Y102.554 E27.20532
G1 X63.307 Y101.792 E27.25654
G1 X53.208 Y91.693 E28.21647
G1 X53.970 Y91.693 E28.26769
G1 X63.307 Y101.030 E29.15517
G1 X63.307 Y100.268 E29.20639
G1 X54.732 Y91.693 E30.02145
G1 X55.494 Y91.693 E30.07267
G1 X63.307 Y99.506 E30.81528
G1 X63.307 Y98.744 E30.86650
G1 X56.256 Y91.693 E31.53668
G1 X57.018 Y91.693 E31.58790
G1 X63.307 Y97.982 E32.18565
G1 X63.307 Y97.220 E32.23687
G1 X57.780 Y91.693 E32.76218
G1 X58.543 Y91.693 E32.81340
G1 X63.307 Y96.457 E33.26628
G1 X63.307 Y95.695 E33.31750
G1 X59.305 Y91.693 E33.69794
G1 X60.067 Y91.693 E33.74916
G1 X63.681 Y95.307 E34.09269
G1 X64.443 Y95.307 E34.14391
G1 X60.829 Y91.693 E34.48745
G1 X61.591 Y91.693 E34.53867
G1 X65.205 Y95.307 E34.88220
G1 X65.967 Y95.307 E34.93342
G1 X62.353 Y91.693 E35.27696
G1 X63.115 Y91.693 E35.32818
G1 X66.729 Y95.307 E35.67171
G1 X67.491 Y95.307 E35.72293
G1 X63.877 Y91.693 E36.06647
G1 X64.639 Y91.693 E36.11769
G1 X68.253 Y95.307 E36.46122
G1 X69.015 Y95.307 E36.51244
G1 X65.401 Y91.693 E36.85598
G1 X66.163 Y91.693 E36.90720
G1 X69.778 Y95.307 E37.25074
G1 X70.540 Y95.307 E37.30196
G1 X66.925 Y91.693 E37.64549
G1 X67.687 Y91.693 E37.69671
G1 X71.302 Y95.307 E38.04025
G1 X72.064 Y95.307 E38.09147
G1 X68.450 Y91.693 E38.43500
G1 X69.212 Y91.693 E38.48622
G1 X72.826 Y95.307 E38.82976
G1 X73.588 Y95.307 E38.88098
G1 X69.974 Y91.693 E39.22451
G1 X70.736 Y91.693 E39.27573
G1 X74.350 Y95.307 E39.61927
G1 X75.112 Y95.307 E39.67049
G1 X71.498 Y91.693 E40.01402
G1 X72.260 Y91.693 E40.06524
G1 X75.874 Y95.307 E40.40878
G1 X76.636 Y95.307 E40.46000
G1 X73.022 Y91.693 E40.80354
G1 X73.784 Y91.693 E40.85475
G1 X77.398 Y95.307 E41.19829
G1 X78.160 Y95.307 E41.24951
G1 X74.546 Y91.693 E41.59305
G1 X75.308 Y91.693 E41.64427
G1 X78.922 Y95.307 E41.98780
G1 X79.685 Y95.307 E42.03902
G1 X76.070 Y91.693 E42.38256
G1 X76.832 Y91.693 E42.43378
G1 X80.447 Y95.307 E42.77731
G1 X81.209 Y95.307 E42.82853
G1 X77.594 Y91.693 E43.17207
G1 X78.356 Y91.693 E43.22329
G1 X81.971 Y95.307 E43.56682
G1 X82.733 Y95.307 E43.61804
G1 X79.119 Y91.693 E43.96158
G1 X79.881 Y91.693 E44.01280
G1 X83.495 Y95.307 E44.35633
G1 X84.257 Y95.307 E44.40755
G1 X80.643 Y91.693 E44.75109
G1 X81.405 Y91.693 E44.80231
G1 X85.019 Y95.307 E45.14585
G1 X85.781 Y95.307 E45.19707
G1 X82.167 Y91.693 E45.54060
G1 X82.929 Y91.693 E45.59182
G1 X86.543 Y95.307 E45.93536
G1 X87.305 Y95.307 E45.98658
G1 X83.691 Y91.693 E46.33011
G1 X84.453 Y91.693 E46.38133
G1 X88.067 Y95.307 E46.72487
G1 X88.829 Y95.307 E46.77609
G1 X85.215 Y91.693 E47.11962
G1 X85.977 Y91.693 E47.17084
G1 X89.592 Y95.307 E47.51438
G1 X90.354 Y95.307 E47.56560
G1 X86.739 Y91.693 E47.90913
G1 X87.501 Y91.693 E47.96035
G1 X91.116 Y95.307 E48.30389
G1 X91.878 Y95.307 E48.35511
G1 X88.263 Y91.693 E48.69864
G1 X89.026 Y91.693 E48.74986
G1 X92.640 Y95.307 E49.09340
G1 X93.402 Y95.307 E49.14462
G1 X89.788 Y91.693 E49.48816
G1 X90.550 Y91.693 E49.53938
G1 X94.164 Y95.307 E49.88291
G1 X94.926 Y95.307 E49.93413
G1 X91.312 Y91.693 E50.27767
G1 X92.074 Y91.693 E50.32889
G1 X95.688 Y95.307 E50.67242
G1 X96.450 Y95.307 E50.72364
G1 X92.836 Y91.693 E51.06718
G1 X93.598 Y91.693 E51.11840
G1 X97.212 Y95.307 E51.46193
G1 X97.974 Y95.307 E51.51315
G1 X94.360 Y91.693 E51.85669
G1 X95.122 Y91.693 E51.90791
G1 X98.736 Y95.307 E52.25144
G1 X99.498 Y95.307 E52.30266
G1 X95.884 Y91.693 E52.64620
G1 X96.646 Y91.693 E52.69742
G1 X100.261 Y95.307 E53.04096
G1 X101.023 Y95.307 E53.09218
G1 X97.408 Y91.693 E53.43571
G1 X98.170 Y91.693 E53.48693
G1 X101.785 Y95.307 E53.83047
G1 X102.547 Y95.307 E53.88169
G1 X98.933 Y91.693 E54.22522
G1 X99.695 Y91.693 E54.27644
G1 X103.309 Y95.307 E54.61998
G1 X104.071 Y95.307 E54.67120
G1 X100.457 Y91.693 E55.01473
G1 X101.219 Y91.693 E55.06595
G1 X104.833 Y95.307 E55.40949
G1 X105.595 Y95.307 E55.46071
G1 X101.981 Y91.693 E55.80424
G1 X102.743 Y91.693 E55.85546
G1 X106.357 Y95.307 E56.19900
G1 X107.119 Y95.307 E56.25022
G1 X103.505 Y91.693 E56.59376
G1 X104.267 Y91.693 E56.64497
G1 X107.881 Y95.307 E56.98851
G1 X108.643 Y95.307 E57.03973
G1 X105.029 Y91.693 E57.38327
G1 X105.791 Y91.693 E57.43449
G1 X109.405 Y95.307 E57.77802
G1 X110.168 Y95.307 E57.82924
G1 X106.553 Y91.693 E58.17278
G1 X107.315 Y91.693 E58.22400
G1 X110.930 Y95.307 E58.56753
G1 X111.692 Y95.307 E58.61875
G1 X108.077 Y91.693 E58.96229
G1 X108.840 Y91.693 E59.01351
G1 X112.454 Y95.307 E59.35704
G1 X113.216 Y95.307 E59.40826
G1 X109.602 Y91.693 E59.75180
G1 X110.364 Y91.693 E59.80302
G1 X113.978 Y95.307 E60.14655
G1 X114.740 Y95.307 E60.19777
G1 X111.126 Y91.693 E60.54131
G1 X111.888 Y91.693 E60.59253
G1 X115.502 Y95.307 E60.93607
G1 X116.264 Y95.307 E60.98729
G1 X112.650 Y91.693 E61.33082
G1 X113.412 Y91.693 E61.38204
G1 X117.026 Y95.307 E61.72558
G1 X117.788 Y95.307 E61.77680
G1 X114.174 Y91.693 E62.12033
G1 X114.936 Y91.693 E62.17155
G1 X118.550 Y95.307 E62.51509
G1 X119.312 Y95.307 E62.56631
G1 X115.698 Y91.693 E62.90984
G1 X116.460 Y91.693 E62.96106
G1 X120.075 Y95.307 E63.30460
G1 X120.837 Y95.307 E63.35582
G1 X117.222 Y91.693 E63.69935
G1 X117.984 Y91.693 E63.75057
G1 X121.599 Y95.307 E64.09411
G1 X122.361 Y95.307 E64.14533
G1 X118.746 Y91.693 E64.48887
G1 X119.509 Y91.693 E64.54008
G1 X123.123 Y95.307 E64.88362
G1 X123.885 Y95.307 E64.93484
G1 X120.271 Y91.693 E65.27838
G1 X121.033 Y91.693 E65.32960
G1 X124.647 Y95.307 E65.67313
G1 X125.409 Y95.307 E65.72435
G1 X121.795 Y91.693 E66.06789
G1 X122.557 Y91.693 E66.11911
G1 X126.171 Y95.307 E66.46264
G1 X126.933 Y95.307 E66.51386
G1 X123.319 Y91.693 E66.85740
G1 X124.081 Y91.693 E66.90862
G1 X127.695 Y95.307 E67.25215
G1 X128.457 Y95.307 E67.30337
G1 X124.843 Y91.693 E67.64691
G1 X125.605 Y91.693 E67.69813
G1 X129.219 Y95.307 E68.04166
G1 X129.981 Y95.307 E68.09288
G1 X126.367 Y91.693 E68.43642
G1 X127.129 Y91.693 E68.48764
G1 X130.744 Y95.307 E68.83118
G1 X131.506 Y95.307 E68.88240
G1 X127.891 Y91.693 E69.22593
G1 X128.653 Y91.693 E69.27715
G1 X132.268 Y95.307 E69.62069
G1 X133.030 Y95.307 E69.67191
G1 X129.416 Y91.693 E70.01544
G1 X130.178 Y91.693 E70.06666
G1 X133.792 Y95.307 E70.41020
G1 X134.554 Y95.307 E70.46142
G1 X130.940 Y91.693 E70.80495
G1 X131.702 Y91.693 E70.85617
G1 X135.316 Y95.307 E71.19971
G1 X136.078 Y95.307 E71.25093
G1 X132.464 Y91.693 E71.59446
G1 X133.226 Y91.693 E71.64568
G1 X136.840 Y95.307 E71.98922
G1 X137.602 Y95.307 E72.04044
G1 X133.988 Y91.693 E72.38397
G1 X134.750 Y91.693 E72.43519
G1 X138.364 Y95.307 E72.77873
G1 X139.126 Y95.307 E72.82995
G1 X135.512 Y91.693 E73.17349
G1 X136.274 Y91.693 E73.22471
G1 X139.888 Y95.307 E73.56824
G1 X140.651 Y95.307 E73.61946
G1 X137.036 Y91.693 E73.96300
G1 X137.798 Y91.693 E74.01422
G1 X141.413 Y95.307 E74.35775
G1 X142.175 Y95.307 E74.40897
G1 X138.560 Y91.693 E74.75251
G1 X139.323 Y91.693 E74.80373
G1 X142.937 Y95.307 E75.14726
G1 X143.699 Y95.307 E75.19848
G1 X140.085 Y91.693 E75.54202
G1 X140.847 Y91.693 E75.59324
G1 X144.461 Y95.307 E75.93677
G1 X145.223 Y95.307 E75.98799
G1 X141.609 Y91.693 E76.33153
G1 X142.371 Y91.693 E76.38275
G1 X145.985 Y95.307 E76.72628
G1 X146.747 Y95.307 E76.77750
G1 X143.133 Y91.693 E77.12104
G1 X143.895 Y91.693 E77.17226
G1 X147.509 Y95.307 E77.51580
G1 X148.271 Y95.307 E77.56702
G1 X144.657 Y91.693 E77.91055
G1 X145.419 Y91.693 E77.96177
G1 X149.033 Y95.307 E78.30531
G1 X149.795 Y95.307 E78.35653
G1 X146.181 Y91.693 E78.70006
G1 X146.943 Y91.693 E78.75128
G1 X150.558 Y95.307 E79.09482
G1 X151.320 Y95.307 E79.14604
G1 X147.705 Y91.693 E79.48957
G1 X148.467 Y91.693 E79.54079
G1 X152.082 Y95.307 E79.88433
G1 X152.844 Y95.307 E79.93555
G1 X149.230 Y91.693 E80.27908
G1 X149.992 Y91.693 E80.33030
G1 X153.307 Y95.008 E80.64545
G1 X153.307 Y94.246 E80.69667
G1 X150.754 Y91.693 E80.93937
G1 X151.516 Y91.693 E80.99059
G1 X153.307 Y93.484 E81.16087
G1 X153.307 Y92.722 E81.21209
G1 X152.278 Y91.693 E81.30992
G1 X153.040 Y91.693 E81.36114
G1 X153.307 Y91.960 E81.38654
G1 E79.38654 F2400.00000
G92 E0
G1 X56.252 Y108.898 F7800.000
G1 E2.00000 F2400.00000
G1 X55.960 Y109.115 E2.02429 F1800.000
G1 X55.643 Y109.305 E2.04901
G1 X55.200 Y109.347 E2.07874
G1 X54.793 Y109.347 E2.10593
G1 X54.298 Y109.296 E2.13916
G1 X53.908 Y109.038 E2.17044
G1 X53.715 Y108.881 E2.18703
M104 S200 ; set temperature
M140 S60 ; wait for bed temperature to be reached
G1 Z0.500 F7800.000
G1 E0.18703 F2400.00000
G92 E0
G1 X56.473 Y105.425 F7800.000
G1 E2.00000 F2400.00000
G1 X56.725 Y105.708 E2.01114 F900.000
G1 X56.965 Y106.110 E2.02488
G1 X57.091 Y106.470 E2.03609
G1 X57.152 Y106.847 E2.04731
G1 X57.132 Y107.314 E2.06105
G1 X57.046 Y107.683 E2.07218
G1 X56.893 Y108.035 E2.08348
G1 X56.591 Y108.457 E2.09872
G1 X56.303 Y108.719 E2.11016
G1 X55.901 Y108.958 E2.12390
G1 X55.545 Y109.087 E2.13505
G1 X55.173 Y109.150 E2.14611
G1 X54.793 Y109.147 E2.15731
G1 X54.335 Y109.051 E2.17105
G1 X53.985 Y108.903 E2.18220
G1 X53.663 Y108.694 E2.19350
G1 X53.298 Y108.326 E2.20873
G1 X53.088 Y107.998 E2.22016
G1 X52.919 Y107.562 E2.23390
G1 X52.850 Y107.180 E2.24532
G1 X52.869 Y106.662 E2.26056
G1 X52.964 Y106.289 E2.27185
G1 X53.121 Y105.943 E2.28302
G1 X53.392 Y105.563 E2.29676
G1 X53.676 Y105.296 E2.30819
G1 X54.120 Y105.030 E2.32343
G1 X54.484 Y104.906 E2.33472
G1 X54.859 Y104.849 E2.34587 F900.000
G1 X55.327 Y104.868 E2.35961
G1 X55.705 Y104.961 E2.37105
G1 X56.171 Y105.188 E2.38629
G1 X56.438 Y105.397 E2.39626
G1 X56.263 Y105.648 F7800.000
G1 X56.478 Y105.889 E2.40316 F900.000
G1 X56.687 Y106.240 E2.41188
G1 X56.794 Y106.545 E2.41880
G1 X56.845 Y106.865 E2.42572
G1 X56.828 Y107.272 E2.43444
G1 X56.755 Y107.586 E2.44134
G1 X56.626 Y107.884 E2.44828
