; generated by Slic3r 1.2.9 on 2018-03-29 at 21:46:57

; external perimeters extrusion width = 0.30mm
; perimeters extrusion width = 0.40mm
; infill extrusion width = 0.40mm
; solid infill extrusion width = 0.40mm
; top infill extrusion width = 0.40mm

M107
M190 S65 ; set bed temperature
M104 S205 ; set temperature
G28 ; home all axes
G1 Z5 F5000 ; lift nozzle

M109 S205 ; wait for temperature to be reached
G21 ; set units to millimeters
G90 ; use absolute coordinates
M82 ; use absolute distances for extrusion
G92 E0
G1 Z0.300 F7800.000
G1 E-2.00000 F2400.00000
G92 E0
G1 X56.753 Y89.328 F7800.000
G1 E2.00000 F2400.00000
G1 X60.000 Y88.464 E2.22443 F1800.000
G1 X140.000 Y88.464 E7.56886
G1 X142.243 Y88.861 E7.72103
G1 X144.213 Y90.004 E7.87320 F1800.000
G1 X145.672 Y91.753 E8.02538
G1 X146.536 Y95.000 E8.24981
G1 X146.536 Y105.000 E8.91786
G1 X146.139 Y107.243 E9.07003
G1 X144.996 Y109.213 E9.22220
G1 X143.247 Y110.672 E9.37437
G1 X140.000 Y111.536 E9.59880
G1 X60.000 Y111.536 E14.94323
G1 X57.757 Y111.139 E15.09541
G1 X55.787 Y109.996 E15.24758
G1 X54.328 Y108.247 E15.39975
G1 X53.464 Y105.000 E15.62418
G1 X53.464 Y95.000 E16.29223
G1 X53.861 Y92.757 E16.44440
G1 X55.004 Y90.787 E16.59657
G1 X56.719 Y89.357 E16.74574
G1 E14.74574 F2400.00000
G92 E0
G1 X65.276 Y103.543 F7800.000
G1 E2.00000 F2400.00000
G1 X64.853 Y103.812 E2.03353 F1800.000
G1 X64.375 Y103.967 E2.06706
G1 X63.874 Y103.998 E2.10059
G1 X63.381 Y103.904 E2.13413
G1 X62.926 Y103.690 E2.16773
G1 X62.532 Y103.359 E2.20209
G1 X62.245 Y102.965 E2.23470
G1 X62.061 Y102.498 E2.26823
G1 X61.998 Y102.000 E2.30176
G1 X62.061 Y101.502 E2.33529
G1 X62.245 Y101.035 E2.36882
G1 X62.540 Y100.629 E2.40235
G1 X62.928 Y100.309 E2.43596
G1 X63.395 Y100.093 E2.47032
G1 X63.874 Y100.002 E2.50292 F1800.000
G1 X64.375 Y100.033 E2.53646
G1 X64.853 Y100.188 E2.56999
G1 X65.276 Y100.457 E2.60352
G1 X65.620 Y100.823 E2.63705
G1 X65.862 Y101.263 E2.67058
G1 X65.987 Y101.749 E2.70411
G1 X65.987 Y102.251 E2.73765
G1 X65.862 Y102.737 E2.77118
G1 X65.620 Y103.177 E2.80471
G1 X65.307 Y103.510 E2.83523
G1 X65.314 Y103.840 F7800.000
G1 X66.594 Y103.629 F7800.000
G1 X66.866 Y103.135 E2.87291 F1800.000
G1 X67.058 Y102.386 E2.92452
G1 X67.058 Y101.614 E2.97613
G1 X66.866 Y100.865 E3.02774
G1 X66.493 Y100.188 E3.07936
G1 X65.965 Y99.625 E3.13097
G1 X65.312 Y99.211 E3.18258
G1 X64.578 Y98.972 E3.23420
G1 X63.806 Y98.924 E3.28581
G1 X63.065 Y99.065 E3.33623
G1 X62.352 Y99.394 E3.38867
G1 X61.753 Y99.890 E3.44062
G1 X61.593 Y100.110 E3.45880
G1 X61.371 Y100.038 E3.47440
G1 X61.371 Y96.371 E3.71936
G1 X138.629 Y96.371 E8.88058
G1 X138.629 Y103.629 E9.36543
G1 X66.639 Y103.629 E14.17473
G1 X65.427 Y104.164 F7800.000
G1 X66.057 Y103.494 E14.23614 F1800.000
G1 X66.364 Y102.936 E14.27871
G1 X66.522 Y102.319 E14.32128
G1 X66.522 Y101.681 E14.36385
G1 X66.364 Y101.064 E14.40643
G1 X66.057 Y100.506 E14.44900
G1 X65.620 Y100.041 E14.49157
G1 X65.082 Y99.700 E14.53414
G1 X64.476 Y99.503 E14.57672
G1 X63.840 Y99.463 E14.61929
G1 X63.230 Y99.579 E14.66080
G1 X62.640 Y99.852 E14.70420
G1 X62.147 Y100.260 E14.74698
G1 X61.772 Y100.775 E14.78955
G1 X61.538 Y101.368 E14.83213
G1 X61.458 Y102.000 E14.87470
G1 X61.538 Y102.632 E14.91727
G1 X61.772 Y103.225 E14.95984
G1 X62.137 Y103.727 E15.00136
G1 X62.658 Y104.164 E15.04675
G1 X60.836 Y104.164 E15.16849
G1 X60.836 Y95.836 E15.72489
G1 X139.164 Y95.836 E20.95768
G1 X139.164 Y104.164 E21.51408
G1 X65.472 Y104.164 E26.43710
G1 X60.300 Y104.700 F7800.000
G1 X60.300 Y95.300 E27.06507 F1800.000
G1 X139.700 Y95.300 E32.36942
G1 X139.700 Y104.700 E32.99739
G1 X60.345 Y104.700 E38.29874
G1 X60.450 Y104.440 F7800.000
G1 X61.473 Y103.897 F7800.000
G1 X61.327 Y103.437 E38.33092 F1800.000
G1 X61.193 Y102.732 E38.37886
G1 X61.146 Y102.005 E38.42753
G1 X61.193 Y101.268 E38.47691
G1 X61.374 Y100.320 E38.54133
G1 X61.954 Y99.367 F7800.000
G1 X61.693 Y99.105 E38.56626 F1800.000
G1 X61.693 Y98.340 E38.61783
G1 X62.408 Y99.055 E38.68602
G1 X62.931 Y98.814 E38.72488
G1 X61.693 Y97.576 E38.84296
G1 X61.693 Y96.811 E38.89453
G1 X63.547 Y98.666 E39.07139
G1 X64.270 Y98.623 E39.12020
G1 X62.339 Y96.693 E39.30432
G1 X63.104 Y96.693 E39.35589
G1 X65.207 Y98.796 E39.55647
G1 X67.424 Y103.307 F7800.000
G1 X67.188 Y103.071 E39.57895 F1800.000
G1 X67.345 Y102.463 E39.62131
G1 X68.189 Y103.307 E39.70182
G1 X68.953 Y103.307 E39.75338
G1 X67.379 Y101.733 E39.90350
G1 X67.215 Y100.804 E39.96715
G1 X69.718 Y103.307 E40.20590
G1 X70.483 Y103.307 E40.25747
G1 X63.869 Y96.693 E40.88828
G1 X64.633 Y96.693 E40.93985
G1 X71.247 Y103.307 E41.57066
G1 X72.012 Y103.307 E41.62222
G1 X65.398 Y96.693 E42.25304
G1 X66.163 Y96.693 E42.30460
G1 X72.777 Y103.307 E42.93542
G1 X73.541 Y103.307 E42.98698
G1 X66.927 Y96.693 E43.61780
G1 X67.692 Y96.693 E43.66936
G1 X74.306 Y103.307 E44.30018
G1 X75.071 Y103.307 E44.35174
G1 X68.456 Y96.693 E44.98256
G1 X69.221 Y96.693 E45.03412
G1 X75.835 Y103.307 E45.66494
G1 X76.600 Y103.307 E45.71650
G1 X69.986 Y96.693 E46.34732
G1 X70.750 Y96.693 E46.39888
G1 X77.365 Y103.307 E47.02969
G1 X78.129 Y103.307 E47.08126
G1 X71.515 Y96.693 E47.71207
G1 X72.280 Y96.693 E47.76364
G1 X78.894 Y103.307 E48.39445
G1 X79.659 Y103.307 E48.44602
G1 X73.044 Y96.693 E49.07683
G1 X73.809 Y96.693 E49.12840
G1 X80.423 Y103.307 E49.75921
G1 X81.188 Y103.307 E49.81078
G1 X74.574 Y96.693 E50.44159
G1 X75.338 Y96.693 E50.49316
G1 X81.953 Y103.307 E51.12397
G1 X82.717 Y103.307 E51.17554
G1 X76.103 Y96.693 E51.80635
G1 X76.868 Y96.693 E51.85792
G1 X83.482 Y103.307 E52.48873
G1 X84.247 Y103.307 E52.54030
G1 X77.632 Y96.693 E53.17111
G1 X78.397 Y96.693 E53.22268
G1 X85.011 Y103.307 E53.85349
G1 X85.776 Y103.307 E53.90506
G1 X79.162 Y96.693 E54.53587
G1 X79.926 Y96.693 E54.58744
G1 X86.541 Y103.307 E55.21825
G1 X87.305 Y103.307 E55.26982
G1 X80.691 Y96.693 E55.90063
G1 X81.456 Y96.693 E55.95220
G1 X88.070 Y103.307 E56.58301
G1 X88.834 Y103.307 E56.63458
G1 X82.220 Y96.693 E57.26539
G1 X82.985 Y96.693 E57.31696
G1 X89.599 Y103.307 E57.94777
G1 X90.364 Y103.307 E57.99934
G1 X83.750 Y96.693 E58.63015
G1 X84.514 Y96.693 E58.68171
G1 X91.128 Y103.307 E59.31253
G1 X91.893 Y103.307 E59.36409
G1 X85.279 Y96.693 E59.99491
G1 X86.043 Y96.693 E60.04647
G1 X92.658 Y103.307 E60.67729
G1 X93.422 Y103.307 E60.72885
G1 X86.808 Y96.693 E61.35967
G1 X87.573 Y96.693 E61.41123
G1 X94.187 Y103.307 E62.04205
G1 X94.952 Y103.307 E62.09361
G1 X88.337 Y96.693 E62.72443
G1 X89.102 Y96.693 E62.77599
G1 X95.716 Y103.307 E63.40680
G1 X96.481 Y103.307 E63.45837
G1 X89.867 Y96.693 E64.08918
G1 X90.631 Y96.693 E64.14075
G1 X97.246 Y103.307 E64.77156
G1 X98.010 Y103.307 E64.82313
G1 X91.396 Y96.693 E65.45394
G1 X92.161 Y96.693 E65.50551
G1 X98.775 Y103.307 E66.13632
G1 X99.540 Y103.307 E66.18789
G1 X92.925 Y96.693 E66.81870
G1 X93.690 Y96.693 E66.87027
G1 X100.304 Y103.307 E67.50108
G1 X101.069 Y103.307 E67.55265
G1 X94.455 Y96.693 E68.18346
G1 X95.219 Y96.693 E68.23503
G1 X101.834 Y103.307 E68.86584
G1 X102.598 Y103.307 E68.91741
G1 X95.984 Y96.693 E69.54822
G1 X96.749 Y96.693 E69.59979
G1 X103.363 Y103.307 E70.23060
G1 X104.128 Y103.307 E70.28217
G1 X97.513 Y96.693 E70.91298
G1 X98.278 Y96.693 E70.96455
G1 X104.892 Y103.307 E71.59536
G1 X105.657 Y103.307 E71.64693
G1 X99.043 Y96.693 E72.27774
G1 X99.807 Y96.693 E72.32931
G1 X106.421 Y103.307 E72.96012
G1 X107.186 Y103.307 E73.01169
G1 X100.572 Y96.693 E73.64250
G1 X101.337 Y96.693 E73.69407
G1 X107.951 Y103.307 E74.32488
G1 X108.715 Y103.307 E74.37645
G1 X102.101 Y96.693 E75.00726
G1 X102.866 Y96.693 E75.05882
G1 X109.480 Y103.307 E75.68964
G1 X110.245 Y103.307 E75.74120
G1 X103.631 Y96.693 E76.37202
G1 X104.395 Y96.693 E76.42358
G1 X111.009 Y103.307 E77.05440
G1 X111.774 Y103.307 E77.10596
G1 X105.160 Y96.693 E77.73678
G1 X105.924 Y96.693 E77.78834
G1 X112.539 Y103.307 E78.41916
G1 X113.303 Y103.307 E78.47072
G1 X106.689 Y96.693 E79.10154
G1 X107.454 Y96.693 E79.15310
G1 X114.068 Y103.307 E79.78392
G1 X114.833 Y103.307 E79.83548
G1 X108.218 Y96.693 E80.46629
G1 X108.983 Y96.693 E80.51786
G1 X115.597 Y103.307 E81.14867
G1 X116.362 Y103.307 E81.20024
G1 X109.748 Y96.693 E81.83105
G1 X110.512 Y96.693 E81.88262
G1 X117.127 Y103.307 E82.51343
G1 X117.891 Y103.307 E82.56500
G1 X111.277 Y96.693 E83.19581
G1 X112.042 Y96.693 E83.24738
G1 X118.656 Y103.307 E83.87819
G1 X119.421 Y103.307 E83.92976
G1 X112.806 Y96.693 E84.56057
G1 X113.571 Y96.693 E84.61214
G1 X120.185 Y103.307 E85.24295
G1 X120.950 Y103.307 E85.29452
G1 X114.336 Y96.693 E85.92533
G1 X115.100 Y96.693 E85.97690
G1 X121.715 Y103.307 E86.60771
G1 X122.479 Y103.307 E86.65928
G1 X115.865 Y96.693 E87.29009
G1 X116.630 Y96.693 E87.34166
G1 X123.244 Y103.307 E87.97247
G1 X124.009 Y103.307 E88.02404
G1 X117.394 Y96.693 E88.65485
G1 X118.159 Y96.693 E88.70642
G1 X124.773 Y103.307 E89.33723
G1 X125.538 Y103.307 E89.38880
G1 X118.924 Y96.693 E90.01961
G1 X119.688 Y96.693 E90.07118
G1 X126.302 Y103.307 E90.70199
G1 X127.067 Y103.307 E90.75356
G1 X120.453 Y96.693 E91.38437
G1 X121.218 Y96.693 E91.43594
G1 X127.832 Y103.307 E92.06675
G1 X128.596 Y103.307 E92.11832
G1 X121.982 Y96.693 E92.74913
G1 X122.747 Y96.693 E92.80069
G1 X129.361 Y103.307 E93.43151
G1 X130.126 Y103.307 E93.48307
G1 X123.511 Y96.693 E94.11389
G1 X124.276 Y96.693 E94.16545
G1 X130.890 Y103.307 E94.79627
G1 X131.655 Y103.307 E94.84783
G1 X125.041 Y96.693 E95.47865
G1 X125.805 Y96.693 E95.53021
G1 X132.420 Y103.307 E96.16103
G1 X133.184 Y103.307 E96.21259
G1 X126.570 Y96.693 E96.84341
G1 X127.335 Y96.693 E96.89497
G1 X133.949 Y103.307 E97.52579
G1 X134.714 Y103.307 E97.57735
G1 X128.099 Y96.693 E98.20817
G1 X128.864 Y96.693 E98.25973
G1 X135.478 Y103.307 E98.89055
G1 X136.243 Y103.307 E98.94211
G1 X129.629 Y96.693 E99.57292
G1 X130.393 Y96.693 E99.62449
G1 X137.008 Y103.307 E100.25530
G1 X137.772 Y103.307 E100.30687
G1 X131.158 Y96.693 E100.93768
G1 X131.923 Y96.693 E100.98925
G1 X138.307 Y103.077 E101.59815
G1 X138.307 Y102.313 E101.64971
G1 X132.687 Y96.693 E102.18569
G1 X133.452 Y96.693 E102.23725
G1 X138.307 Y101.548 E102.70030
G1 X138.307 Y100.783 E102.75186
G1 X134.217 Y96.693 E103.14198
G1 X134.981 Y96.693 E103.19355
G1 X138.307 Y100.019 E103.51074
G1 X138.307 Y99.254 E103.56231
G1 X135.746 Y96.693 E103.80658
G1 X136.511 Y96.693 E103.85814
G1 X138.307 Y98.489 E104.02948
G1 X138.307 Y97.725 E104.08105
G1 X137.275 Y96.693 E104.17946
G1 X138.040 Y96.693 E104.23103
G1 X138.307 Y96.960 E104.25652
G1 X65.352 Y103.831 F7800.000
G1 X65.006 Y104.117 E104.28648 F1800.000
G1 X64.745 Y104.284 E104.30722
G1 X64.432 Y104.332 E104.32834
G1 X63.862 Y104.350 E104.36641
G1 X63.437 Y104.311 E104.39492
G1 X63.266 Y104.228 E104.40763
G1 X62.883 Y103.983 E104.43801
M104 S200 ; set temperature
M140 S60 ; wait for bed temperature to be reached
G1 Z0.500 F7800.000
G1 X62.273 Y103.267 F7800.000
G1 X62.108 Y103.040 E104.44624 F900.000
G1 X61.909 Y102.537 E104.46215
G1 X61.841 Y102.000 E104.47805
G1 X61.909 Y101.463 E104.49395
G1 X62.108 Y100.960 E104.50986
G1 X62.426 Y100.522 E104.52576
G1 X62.847 Y100.174 E104.54179
G1 X63.371 Y99.940 E104.55867
G1 X63.864 Y99.845 E104.57344 F900.000
G1 X64.405 Y99.879 E104.58935
G1 X64.919 Y100.047 E104.60525
G1 X65.376 Y100.337 E104.62115
G1 X65.747 Y100.731 E104.63706
G1 X66.007 Y101.205 E104.65296
G1 X66.142 Y101.729 E104.66886
G1 X66.142 Y102.271 E104.68477
G1 X66.007 Y102.795 E104.70067
G1 X65.747 Y103.269 E104.71657
G1 X65.363 Y103.678 E104.73306
G1 X64.917 Y103.954 E104.74847
G1 X64.405 Y104.121 E104.76430
G1 X63.864 Y104.155 E104.78020
G1 X63.333 Y104.053 E104.79611
G1 X62.843 Y103.823 E104.81201
G1 X62.426 Y103.478 E104.82791
G1 X62.299 Y103.303 E104.83426
G1 X62.520 Y103.087 F7800.000
G1 X62.378 Y102.892 E104.83943 F900.000
G1 X62.207 Y102.460 E104.84935
G1 X62.149 Y102.000 E104.85926
G1 X62.207 Y101.540 E104.86918
G1 X62.378 Y101.108 E104.87910
G1 X62.651 Y100.733 E104.88902
G1 X63.009 Y100.436 E104.89897
G1 X63.463 Y100.233 E104.90960
G1 X63.884 Y100.152 E104.91876 F900.000
G1 X64.347 Y100.182 E104.92868
G1 X64.788 Y100.325 E104.93860
G1 X65.180 Y100.574 E104.94852
G1 X65.498 Y100.912 E104.95844
G1 X65.721 Y101.319 E104.96836
G1 X65.837 Y101.768 E104.97827
G1 X65.837 Y102.232 E104.98819
G1 X65.721 Y102.681 E104.99811
G1 X65.498 Y103.088 E105.00803
G1 X65.168 Y103.440 E105.01834
G1 X64.787 Y103.675 E105.02790
G1 X64.347 Y103.818 E105.03780
G1 X63.884 Y103.848 E105.04772
G1 X63.428 Y103.761 E105.05764
G1 X63.008 Y103.563 E105.06756
G1 X62.651 Y103.267 E105.07748
G1 X62.546 Y103.124 E105.08127
G1 X62.280 Y103.112 F7800.000
G1 X62.734 Y104.191 F7800.000
G1 X60.809 Y104.191 E105.13786 F3600.000
G1 X60.809 Y95.809 E105.38421
G1 X139.191 Y95.809 E107.68770
G1 X139.191 Y104.191 E107.93404
G1 X65.497 Y104.191 E110.09974
G1 X65.453 Y104.037 E110.10445
G1 X65.588 Y103.954 E110.10911
G1 X66.035 Y103.478 E110.12828
G1 X66.338 Y102.926 E110.14681
G1 X66.495 Y102.315 E110.16533
G1 X66.495 Y101.685 E110.18386
G1 X66.338 Y101.074 E110.20239
G1 X66.035 Y100.522 E110.22092
G1 X65.603 Y100.062 E110.23944
G1 X65.071 Y99.724 E110.25797
G1 X64.471 Y99.529 E110.27650
G1 X63.842 Y99.490 E110.29503
G1 X63.264 Y99.600 E110.31233
G1 X62.658 Y99.872 E110.33183
G1 X62.167 Y100.278 E110.35058
G1 X61.796 Y100.788 E110.36911
G1 X61.564 Y101.375 E110.38764
G1 X61.485 Y102.000 E110.40616
G1 X61.564 Y102.625 E110.42469
G1 X61.796 Y103.212 E110.44322
G1 X62.167 Y103.722 E110.46175
G1 X62.700 Y104.163 E110.48207
G1 X60.455 Y104.545 F7800.000
G1 X60.455 Y95.455 E110.74919 F3600.000
G1 X139.545 Y95.455 E113.07346
G1 X139.545 Y104.545 E113.34058
G1 X60.500 Y104.545 E115.66352
G1 X60.150 Y104.850 F7800.000
G1 X60.150 Y95.150 E115.87087 F1800.000
G1 X139.850 Y95.150 E117.57455
G1 X139.850 Y104.850 E117.78190
G1 X60.195 Y104.850 E119.48463
G1 X60.300 Y104.590 F7800.000
G1 X61.014 Y103.254 F7800.000
G1 X61.205 Y103.062 E119.49281 F1200.000
G1 X61.591 Y103.191 E119.50508
G1 X61.014 Y103.767 E119.52971
G1 X61.309 Y103.986 E119.54081
G1 X61.791 Y103.504 E119.56140
G1 X62.007 Y103.802 E119.57251
G1 X61.823 Y103.986 E119.58039
G1 X62.818 Y104.018 F7800.000
G1 X63.252 Y104.293 E119.59550 F1200.000
G1 X63.850 Y104.350 E119.61315
G1 X64.449 Y104.331 E119.63077
G1 X65.032 Y104.239 E119.64810
G1 X65.305 Y104.163 E119.65645
G1 E117.65645 F2400.00000
G92 E0
G1 X61.199 Y102.852 F7800.000
G1 E2.00000 F2400.00000
G1 X61.147 Y102.020 E2.05195 F1200.000
G1 X61.199 Y101.148 E2.10642
G1 X61.609 Y100.613 F7800.000
G1 X61.271 Y100.951 E2.12052 F1200.000
G1 X61.014 Y100.707 E2.13093
G1 X65.707 Y96.014 E2.32620
G1 X65.207 Y96.014 E2.34092
G1 X61.014 Y100.207 E2.51537
G1 X61.014 Y99.707 E2.53009
G1 X64.707 Y96.014 E2.68372
G1 X64.206 Y96.014 E2.69844
G1 X61.014 Y99.206 E2.83126
G1 X61.014 Y98.706 E2.84598
G1 X63.706 Y96.014 E2.95797
G1 X63.206 Y96.014 E2.97269
G1 X61.014 Y98.205 E3.06387
G1 X61.014 Y97.705 E3.07859
G1 X62.705 Y96.014 E3.14895
G1 X62.205 Y96.014 E3.16367
G1 X61.014 Y97.205 E3.21321
G1 X61.014 Y96.704 E3.22793
G1 X61.704 Y96.014 E3.25665
G1 X61.204 Y96.014 E3.27137
G1 X61.014 Y96.204 E3.27927
G1 X62.582 Y99.640 F7800.000
G1 X66.208 Y96.014 E3.43012 F1200.000
G1 X66.708 Y96.014 E3.44484
G1 X63.366 Y99.356 E3.58388
G1 X63.929 Y99.294 E3.60052
G1 X67.208 Y96.014 E3.73698
G1 X67.709 Y96.014 E3.75170
G1 X64.399 Y99.324 E3.88940
G1 X64.787 Y99.436 E3.90127
G1 X68.209 Y96.014 E4.04367
G1 X68.710 Y96.014 E4.05839
G1 X65.155 Y99.568 E4.20626
G1 X65.461 Y99.763 E4.21693
G1 X69.210 Y96.014 E4.37289
G1 X69.710 Y96.014 E4.38761
G1 X65.755 Y99.969 E4.55217
G1 X65.998 Y100.227 E4.56258
G1 X70.211 Y96.014 E4.73788
G1 X70.711 Y96.014 E4.75260
G1 X66.226 Y100.499 E4.93920
G1 X66.404 Y100.822 E4.95004
G1 X71.211 Y96.014 E5.15007
G1 X71.712 Y96.014 E5.16480
G1 X66.558 Y101.168 E5.37923
G1 X66.660 Y101.566 E5.39133
G1 X72.212 Y96.014 E5.62233
G1 X72.713 Y96.014 E5.63705
G1 X66.701 Y102.026 E5.88718
G1 X66.666 Y102.561 E5.90296
G1 X73.213 Y96.014 E6.17536
G1 X73.713 Y96.014 E6.19008
G1 X66.409 Y103.319 E6.49399
G1 X66.242 Y103.986 E6.51423
G1 X74.214 Y96.014 E6.84590
G1 X74.714 Y96.014 E6.86062
G1 X66.742 Y103.986 E7.19230
G1 X67.243 Y103.986 E7.20702
G1 X75.214 Y96.014 E7.53870
